Target/Dark/Image/GitHub/Astro.svg

<svg xmlns="http://www.w3.org/2000/svg" width="1281" height="1280" fill="none"><path fill="url(#a)" fill-rule="evenodd" d="M815.931 94.644c9.719 12.065 14.675 28.346 24.588 60.909l216.541 711.348c-80.061-41.533-167.096-71.488-258.886-87.649L657.182 302.798a18.35 18.35 0 0 0-35.21.055L482.688 779.011c-92.217 16.089-179.65 46.098-260.054 87.782L440.24 155.388c9.943-32.506 14.914-48.759 24.634-60.803A80 80 0 0 1 497.293 70.6c14.359-5.772 31.356-5.772 65.349-5.772h155.425c34.037 0 51.056 0 65.429 5.784a80 80 0 0 1 32.435 24.032" clip-rule="evenodd"/><path fill="#FF5D01" fill-rule="evenodd" d="M841.843 900.754c-35.697 30.525-106.948 51.343-189.021 51.343-100.733 0-185.163-31.36-207.566-73.536-8.009 24.171-9.806 51.835-9.806 69.507 0 0-5.277 86.772 55.078 147.132 0-31.34 25.406-56.74 56.745-56.74 53.716 0 53.656 46.86 53.607 84.88l-.003 3.39c0 57.71 35.27 107.18 85.431 128.04-7.492-15.41-11.695-32.72-11.695-51 0-55.04 32.313-75.54 69.867-99.36h.001c29.88-18.95 63.079-40 85.959-82.24 11.939-22.04 18.718-47.277 18.718-74.102 0-16.495-2.564-32.392-7.315-47.314" clip-rule="evenodd"/><path fill="url(#b)" fill-rule="evenodd" d="M841.843 900.754c-35.697 30.525-106.948 51.343-189.021 51.343-100.733 0-185.163-31.36-207.566-73.536-8.009 24.171-9.806 51.835-9.806 69.507 0 0-5.277 86.772 55.078 147.132 0-31.34 25.406-56.74 56.745-56.74 53.716 0 53.656 46.86 53.607 84.88l-.003 3.39c0 57.71 35.27 107.18 85.431 128.04-7.492-15.41-11.695-32.72-11.695-51 0-55.04 32.313-75.54 69.867-99.36h.001c29.88-18.95 63.079-40 85.959-82.24 11.939-22.04 18.718-47.277 18.718-74.102 0-16.495-2.564-32.392-7.315-47.314" clip-rule="evenodd"/><defs><linearGradient id="a" x1="883.889" x2="639.848" y1="27.113" y2="866.902" gradientUnits="userSpaceOnUse"><stop stop-color="#fff"/><stop offset="1" stop-color="#F9FAFB"/></linearGradient><linearGradient id="b" x1="1002.57" x2="791.219" y1="652.45" y2="1094.91" gradientUnits="userSpaceOnUse"><stop stop-color="#FF1639"/><stop offset="1" stop-color="#FF1639" stop-opacity="0"/></linearGradient></defs></svg>

<svg width="1281" height="1280" viewBox="0 0 1281 1280" fill="none" xmlns="http://www.w3.org/2000/svg">
	<path fill-rule="evenodd" clip-rule="evenodd"
		d="M815.931 94.6439C825.65 106.709 830.606 122.99 840.519 155.553L1057.06 866.901C976.999 825.368 889.964 795.413 798.174 779.252L657.182 302.798C654.875 295.002 647.715 289.654 639.585 289.654C631.434 289.654 624.26 295.03 621.972 302.853L482.688 779.011C390.471 795.1 303.038 825.109 222.634 866.793L440.24 155.388L440.24 155.388C450.183 122.882 455.154 106.629 464.874 94.5853C473.455 83.9531 484.616 75.6958 497.293 70.6002C511.652 64.8284 528.649 64.8284 562.642 64.8284H718.067C752.104 64.8284 769.123 64.8284 783.496 70.6123C796.184 75.7184 807.352 83.9923 815.931 94.6439Z"
		fill="url(#paint0_linear_709_106)" />
	<path fill-rule="evenodd" clip-rule="evenodd"
		d="M841.843 900.754C806.146 931.279 734.895 952.097 652.822 952.097C552.089 952.097 467.659 920.737 445.256 878.561C437.247 902.732 435.45 930.396 435.45 948.068C435.45 948.068 430.173 1034.84 490.528 1095.2C490.528 1063.86 515.934 1038.46 547.273 1038.46C600.989 1038.46 600.929 1085.32 600.88 1123.34C600.878 1124.48 600.877 1125.61 600.877 1126.73C600.877 1184.44 636.147 1233.91 686.308 1254.77C678.816 1239.36 674.613 1222.05 674.613 1203.77C674.613 1148.73 706.926 1128.23 744.48 1104.41L744.481 1104.41C774.361 1085.46 807.56 1064.41 830.44 1022.17C842.379 1000.13 849.158 974.893 849.158 948.068C849.158 931.573 846.594 915.676 841.843 900.754Z"
		fill="#FF5D01" />
	<path fill-rule="evenodd" clip-rule="evenodd"
		d="M841.843 900.754C806.146 931.279 734.895 952.097 652.822 952.097C552.089 952.097 467.659 920.737 445.256 878.561C437.247 902.732 435.45 930.396 435.45 948.068C435.45 948.068 430.173 1034.84 490.528 1095.2C490.528 1063.86 515.934 1038.46 547.273 1038.46C600.989 1038.46 600.929 1085.32 600.88 1123.34C600.878 1124.48 600.877 1125.61 600.877 1126.73C600.877 1184.44 636.147 1233.91 686.308 1254.77C678.816 1239.36 674.613 1222.05 674.613 1203.77C674.613 1148.73 706.926 1128.23 744.48 1104.41L744.481 1104.41C774.361 1085.46 807.56 1064.41 830.44 1022.17C842.379 1000.13 849.158 974.893 849.158 948.068C849.158 931.573 846.594 915.676 841.843 900.754Z"
		fill="url(#paint1_linear_709_106)" />
	<defs>
		<linearGradient id="paint0_linear_709_106" x1="883.889" y1="27.1132" x2="639.848" y2="866.902"
			gradientUnits="userSpaceOnUse">
			<stop stop-color="white" />
			<stop offset="1" stop-color="#F9FAFB" />
		</linearGradient>
		<linearGradient id="paint1_linear_709_106" x1="1002.57" y1="652.45" x2="791.219" y2="1094.91"
			gradientUnits="userSpaceOnUse">
			<stop stop-color="#FF1639" />
			<stop offset="1" stop-color="#FF1639" stop-opacity="0" />
		</linearGradient>
	</defs>
	<style xmlns="" id="autoconsent-prehide" />
</svg>
